static/site/images/special-projects/autoclave/svg/circle-icon-5.svg

<svg width="109" height="109" viewBox="0 0 109 109" fill="none" xmlns="http://www.w3.org/2000/svg">
<path d="M20.3406 59.8029C20.3406 55.4982 24.4772 55.4982 24.4772 51.1807C24.4772 46.8631 20.3406 46.876 20.3406 42.5714C20.3406 38.2668 24.4772 38.2539 24.4772 33.9492" stroke="#0073FF" stroke-width="2" stroke-miterlimit="10"/>
<path d="M36.552 46.877C36.552 42.572 40.6886 42.572 40.6886 38.2542C40.6886 33.9363 36.552 33.9492 36.552 29.6443C36.552 25.3393 40.6886 25.3264 40.6886 21.0215" stroke="#0073FF" stroke-width="2" stroke-miterlimit="10"/>
<path d="M52.7612 35.7716C52.7612 31.467 56.8978 31.467 56.8978 27.1494C56.8978 22.8319 52.7612 22.8448 52.7612 18.5402C52.7612 14.2355 56.8978 14.2226 56.8978 9.91797" stroke="#0073FF" stroke-width="2" stroke-miterlimit="10"/>
<path d="M68.96 43.6056C68.96 39.301 73.0965 39.301 73.0965 34.9963C73.0965 30.6917 68.96 30.6788 68.96 26.3741C68.96 22.0695 73.0965 22.0695 73.0965 17.752" stroke="#0073FF" stroke-width="2" stroke-miterlimit="10"/>
<path d="M85.1689 52.59C85.1689 48.2854 89.3055 48.2854 89.3055 43.9807C89.3055 39.6761 85.1689 39.6632 85.1689 35.3585C85.1689 31.0539 89.3055 31.041 89.3055 26.7363" stroke="#0073FF" stroke-width="2" stroke-miterlimit="10"/>
<path d="M54.998 107.994C84.2691 107.994 107.998 84.2652 107.998 54.9941C107.998 25.723 84.2691 1.99414 54.998 1.99414C25.727 1.99414 1.99805 25.723 1.99805 54.9941C1.99805 84.2652 25.727 107.994 54.998 107.994Z" stroke="#0073FF" stroke-width="2" stroke-miterlimit="10"/>
<path d="M57.4806 84.8027V60.3199H64.7713L52.271 42.8691L39.7837 60.3199H47.0615V84.8027" stroke="#0073FF" stroke-width="2" stroke-miterlimit="10"/>
<path d="M80.6581 84.8026V68.3467H86.1649L76.7154 55.1484L67.2659 68.3467H72.7727V84.8026" stroke="#0073FF" stroke-width="2" stroke-miterlimit="10"/>
<path d="M34.5337 84.8025V74.1767H39.782L30.772 61.5859L21.762 74.1767H27.0103V84.8025" stroke="#0073FF" stroke-width="2" stroke-miterlimit="10"/>
</svg>

<svg width="109" height="109" fill="none" xmlns="http://www.w3.org/2000/svg"><path d="M20.34 59.803c0-4.305 4.137-4.305 4.137-8.622 0-4.318-4.136-4.305-4.136-8.61 0-4.304 4.136-4.317 4.136-8.622m12.075 12.928c0-4.305 4.137-4.305 4.137-8.623s-4.137-4.305-4.137-8.61 4.137-4.318 4.137-8.622m12.072 14.75c0-4.305 4.137-4.305 4.137-8.623 0-4.317-4.137-4.304-4.137-8.609 0-4.304 4.137-4.317 4.137-8.622M68.96 43.606c0-4.305 4.137-4.305 4.137-8.61 0-4.304-4.137-4.317-4.137-8.622 0-4.304 4.137-4.304 4.137-8.622M85.169 52.59c0-4.305 4.136-4.305 4.136-8.61 0-4.304-4.136-4.317-4.136-8.621 0-4.305 4.136-4.318 4.136-8.623" stroke="#0073FF" stroke-width="2" stroke-miterlimit="10"/><path d="M54.998 107.994c29.271 0 53-23.729 53-53s-23.729-53-53-53-53 23.729-53 53 23.729 53 53 53z" stroke="#0073FF" stroke-width="2" stroke-miterlimit="10"/><path d="M57.48 84.803V60.32h7.291l-12.5-17.45-12.487 17.45h7.278v24.483m33.596 0V68.347h5.507l-9.45-13.199-9.45 13.199h5.508v16.456m-38.239-.001V74.177h5.248l-9.01-12.591-9.01 12.59h5.248v10.626" stroke="#0073FF" stroke-width="2" stroke-miterlimit="10"/></svg>
